flaticon/weather/tide.svg

<svg xmlns="http://www.w3.org/2000/svg" width="32" height="32" viewBox="0 0 24 24">
    <path d="M20.394531 18.320312C19.359375 18.320312 18.378906 18.691406 17.59375 19.371094 16.808594 18.691406 15.824219 18.320312 14.789062 18.320312 13.753906 18.320312 12.769531 18.691406 11.984375 19.371094 11.199219 18.691406 10.21875 18.320312 9.183594 18.320312 8.144531 18.320312 7.164062 18.691406 6.378906 19.371094 5.59375 18.691406 4.613281 18.320312 3.574219 18.320312 2.40625 18.320312 1.308594 18.789062.484375 19.644531.332031 19.800781.335938 20.054688.492188 20.210938.652344 20.363281.90625 20.359375 1.058594 20.199219 1.734375 19.503906 2.625 19.121094 3.574219 19.121094 4.523438 19.121094 5.417969 19.503906 6.089844 20.199219L6.378906 20.5 6.667969 20.199219C7.339844 19.503906 8.234375 19.121094 9.183594 19.121094 10.128906 19.121094 11.023438 19.503906 11.695312 20.199219L11.984375 20.5 12.273438 20.199219C12.945312 19.503906 13.839844 19.121094 14.789062 19.121094 15.738281 19.121094 16.628906 19.503906 17.304688 20.199219L17.59375 20.5 17.878906 20.199219C18.554688 19.503906 19.445312 19.121094 20.394531 19.121094 21.34375 19.121094 22.238281 19.503906 22.910156 20.199219 23.066406 20.359375 23.320312 20.363281 23.476562 20.210938 23.636719 20.054688 23.640625 19.800781 23.484375 19.644531 22.660156 18.789062 21.5625 18.320312 20.394531 18.320312zM20.394531 21.125C19.359375 21.125 18.378906 21.492188 17.59375 22.175781 16.808594 21.492188 15.824219 21.125 14.789062 21.125 13.753906 21.125 12.769531 21.492188 11.984375 22.175781 11.199219 21.492188 10.21875 21.125 9.183594 21.125 8.144531 21.125 7.164062 21.492188 6.378906 22.175781 5.59375 21.492188 4.613281 21.125 3.574219 21.125 2.40625 21.125 1.308594 21.59375.484375 22.445312.332031 22.605469.335938 22.859375.492188 23.011719.652344 23.167969.90625 23.164062 1.058594 23.003906 1.734375 22.308594 2.625 21.925781 3.574219 21.925781 4.523438 21.925781 5.417969 22.308594 6.089844 23.003906L6.378906 23.300781 6.667969 23.003906C7.339844 22.308594 8.234375 21.925781 9.183594 21.925781 10.128906 21.925781 11.023438 22.308594 11.695312 23.003906L11.984375 23.300781 12.273438 23.003906C12.945312 22.308594 13.839844 21.925781 14.789062 21.925781 15.738281 21.925781 16.628906 22.308594 17.304688 23.003906L17.59375 23.300781 17.878906 23.003906C18.554688 22.308594 19.445312 21.925781 20.394531 21.925781 21.34375 21.925781 22.238281 22.308594 22.910156 23.003906 23.066406 23.164062 23.320312 23.167969 23.476562 23.011719 23.636719 22.859375 23.640625 22.605469 23.484375 22.445312 22.660156 21.59375 21.5625 21.125 20.394531 21.125zM21.976562 14.75C21.792969 13.15625 20.4375 11.910156 18.792969 11.910156 17.027344 11.910156 15.589844 13.347656 15.589844 15.117188 15.589844 15.335938 15.769531 15.515625 15.992188 15.515625 16.210938 15.515625 16.390625 15.335938 16.390625 15.117188 16.390625 13.789062 17.46875 12.710938 18.792969 12.710938 19.996094 12.710938 20.992188 13.601562 21.167969 14.757812 20.609375 14.859375 20.117188 15.152344 19.765625 15.566406 18.964844 15.6875 18.210938 16.035156 17.59375 16.566406 16.808594 15.886719 15.824219 15.515625 14.789062 15.515625 13.75 15.515625 12.769531 15.886719 11.984375 16.566406 11.199219 15.886719 10.21875 15.515625 9.183594 15.515625 8.144531 15.515625 7.164062 15.886719 6.378906 16.566406 5.59375 15.886719 4.613281 15.515625 3.574219 15.515625 2.71875 15.515625 1.898438 15.773438 1.195312 16.246094.621094 15.089844.664062 13.691406 1.34375 12.574219 2.222656 11.125 3.929688 10.445312 5.546875 10.867188 5.726562 11.441406 6.066406 11.972656 6.5625 12.382812 6.640625 12.445312 6.730469 12.472656 6.820312 12.472656 6.933594 12.472656 7.050781 12.425781 7.128906 12.328125 7.269531 12.15625 7.242188 11.90625 7.074219 11.765625 6.667969 11.429688 6.402344 10.988281 6.277344 10.511719 6.277344 10.507812 6.277344 10.503906 6.273438 10.496094 6.09375 9.78125 6.242188 8.992188 6.746094 8.382812 7.289062 7.722656 8.121094 7.410156 8.941406 7.53125 8.828125 8.007812 8.824219 8.511719 8.941406 9.003906 8.984375 9.1875 9.148438 9.3125 9.332031 9.3125 9.359375 9.3125 9.390625 9.308594 9.421875 9.300781 9.636719 9.25 9.769531 9.035156 9.71875 8.820312 9.574219 8.195312 9.679688 7.550781 10.015625 7.003906 10.355469 6.460938 10.882812 6.078125 11.507812 5.929688 12.132812 5.785156 12.777344 5.890625 13.324219 6.226562 13.871094 6.566406 14.25 7.09375 14.398438 7.71875 14.449219 7.933594 14.664062 8.066406 14.878906 8.019531 15.09375 7.96875 15.230469 7.75 15.179688 7.535156 14.980469 6.703125 14.472656 5.996094 13.746094 5.546875 13.445312 5.359375 13.125 5.230469 12.792969 5.152344 12.875 3.125 14.542969 1.5 16.589844 1.5 18.628906 1.5 20.296875 3.113281 20.386719 5.132812 18.8125 5.335938 17.59375 6.679688 17.59375 8.308594 17.59375 8.527344 17.769531 8.707031 17.992188 8.707031 18.214844 8.707031 18.394531 8.527344 18.394531 8.308594 18.394531 6.980469 19.46875 5.902344 20.796875 5.902344 22.121094 5.902344 23.199219 6.980469 23.199219 8.308594 23.199219 8.527344 23.378906 8.707031 23.597656 8.707031 23.820312 8.707031 24 8.527344 24 8.308594 24 6.671875 22.769531 5.324219 21.1875 5.128906 21.09375 2.671875 19.070312.699219 16.589844.699219 14.132812.699219 12.121094 2.640625 11.996094 5.070312 11.773438 5.074219 11.550781 5.101562 11.328125 5.152344 10.492188 5.347656 9.785156 5.855469 9.335938 6.585938 9.296875 6.648438 9.265625 6.710938 9.230469 6.773438 8.078125 6.542969 6.890625 6.949219 6.128906 7.875 5.613281 8.5 5.378906 9.265625 5.40625 10.019531 3.550781 9.683594 1.664062 10.507812.660156 12.160156-.191406 13.566406-.210938 15.332031.566406 16.761719.542969 16.789062.511719 16.8125.484375 16.839844.332031 17 .335938 17.253906.492188 17.40625.652344 17.5625.90625 17.554688 1.058594 17.398438 1.128906 17.324219 1.203125 17.257812 1.277344 17.195312 1.28125 17.191406 1.289062 17.191406 1.292969 17.1875 1.316406 17.171875 1.332031 17.148438 1.347656 17.132812 1.980469 16.605469 2.757812 16.320312 3.574219 16.320312 4.523438 16.320312 5.417969 16.703125 6.089844 17.398438L6.378906 17.695312 6.667969 17.398438C7.339844 16.703125 8.234375 16.320312 9.183594 16.320312 10.132812 16.320312 11.023438 16.703125 11.699219 17.398438L11.984375 17.695312 12.273438 17.398438C12.945312 16.703125 13.839844 16.320312 14.789062 16.320312 15.738281 16.320312 16.632812 16.703125 17.304688 17.398438L17.59375 17.695312 17.878906 17.398438C18.28125 16.984375 18.753906 16.683594 19.277344 16.507812 19.226562 16.703125 19.195312 16.90625 19.195312 17.121094 19.195312 17.339844 19.375 17.519531 19.59375 17.519531 19.816406 17.519531 19.996094 17.339844 19.996094 17.121094 19.996094 16.234375 20.714844 15.515625 21.597656 15.515625 22.480469 15.515625 23.199219 16.234375 23.199219 17.121094 23.199219 17.339844 23.378906 17.519531 23.597656 17.519531 23.820312 17.519531 24 17.339844 24 17.121094 24 15.921875 23.121094 14.929688 21.976562 14.75zM21.976562 14.75"/>
</svg>

<svg xmlns="http://www.w3.org/2000/svg" width="32" height="32" viewBox="0 0 24 24">
    <path d="M20.395 18.32a4.255 4.255 0 0 0-2.801 1.051 4.265 4.265 0 0 0-5.61 0 4.255 4.255 0 0 0-2.8-1.05c-1.04 0-2.02.37-2.805 1.05a4.257 4.257 0 0 0-2.805-1.05 4.26 4.26 0 0 0-3.09 1.324.404.404 0 0 0 .008.566.4.4 0 0 0 .567-.012 3.483 3.483 0 0 1 2.515-1.078c.95 0 1.844.383 2.516 1.078l.289.301.289-.3a3.477 3.477 0 0 1 2.516-1.079c.945 0 1.84.383 2.511 1.078l.29.301.288-.3a3.477 3.477 0 0 1 2.516-1.079c.95 0 1.84.383 2.516 1.078l.289.301.285-.3a3.483 3.483 0 0 1 2.516-1.079c.949 0 1.843.383 2.515 1.078.156.16.41.164.567.012a.397.397 0 0 0 .007-.566 4.26 4.26 0 0 0-3.09-1.325zm0 0M20.395 21.125a4.235 4.235 0 0 0-2.801 1.05 4.245 4.245 0 0 0-2.805-1.05c-1.035 0-2.02.367-2.805 1.05a4.235 4.235 0 0 0-2.8-1.05c-1.04 0-2.02.367-2.805 1.05a4.237 4.237 0 0 0-2.805-1.05 4.271 4.271 0 0 0-3.09 1.32.404.404 0 0 0 .008.567c.16.156.414.152.567-.008a3.483 3.483 0 0 1 2.515-1.078c.95 0 1.844.383 2.516 1.078l.289.297.289-.297a3.477 3.477 0 0 1 2.516-1.078c.945 0 1.84.383 2.511 1.078l.29.297.288-.297a3.477 3.477 0 0 1 2.516-1.078c.95 0 1.84.383 2.516 1.078l.289.297.285-.297a3.483 3.483 0 0 1 2.516-1.078c.949 0 1.843.383 2.515 1.078.156.16.41.164.567.008a.397.397 0 0 0 .007-.567 4.271 4.271 0 0 0-3.09-1.32zm0 0M21.977 14.75a3.212 3.212 0 0 0-3.184-2.84 3.208 3.208 0 0 0-3.203 3.207.401.401 0 0 0 .8 0 2.406 2.406 0 0 1 2.403-2.406c1.203 0 2.2.89 2.375 2.047a2.405 2.405 0 0 0-1.402.808c-.801.121-1.555.47-2.172 1a4.265 4.265 0 0 0-5.61 0 4.255 4.255 0 0 0-2.8-1.05c-1.04 0-2.02.37-2.805 1.05a4.257 4.257 0 0 0-5.184-.32 3.824 3.824 0 0 1 .149-3.672 3.788 3.788 0 0 1 4.203-1.707c.18.574.52 1.106 1.016 1.516a.407.407 0 0 0 .566-.055.401.401 0 0 0-.055-.562 2.41 2.41 0 0 1-.797-1.254c0-.004 0-.008-.004-.016a2.394 2.394 0 0 1 .473-2.113 2.386 2.386 0 0 1 2.195-.852 3.18 3.18 0 0 0 0 1.473.4.4 0 0 0 .48.297.4.4 0 0 0 .298-.48 2.406 2.406 0 0 1 1.79-2.89 2.41 2.41 0 0 1 1.815.296c.547.34.926.867 1.074 1.492.051.215.266.347.48.3a.406.406 0 0 0 .302-.484 3.196 3.196 0 0 0-2.387-2.383A3.806 3.806 0 0 1 16.59 1.5a3.806 3.806 0 0 1 3.797 3.633 3.206 3.206 0 0 0-2.793 3.176.401.401 0 0 0 .8 0 2.404 2.404 0 0 1 2.403-2.407 2.406 2.406 0 0 1 2.402 2.407.4.4 0 0 0 .801 0 3.208 3.208 0 0 0-2.813-3.18A4.609 4.609 0 0 0 16.59.699c-2.457 0-4.469 1.942-4.594 4.371a3.165 3.165 0 0 0-2.66 1.516c-.04.062-.07.125-.106.187a3.188 3.188 0 0 0-3.824 3.247A4.584 4.584 0 0 0 .66 12.16a4.64 4.64 0 0 0-.094 4.602c-.023.027-.054.05-.082.078a.4.4 0 0 0 .574.559c.07-.075.145-.141.22-.204.003-.004.011-.004.015-.008.023-.015.039-.039.055-.054a3.459 3.459 0 0 1 2.226-.813c.95 0 1.844.383 2.516 1.078l.289.297.289-.297a3.477 3.477 0 0 1 2.516-1.078c.949 0 1.84.383 2.515 1.078l.285.297.29-.297a3.477 3.477 0 0 1 2.515-1.078c.95 0 1.844.383 2.516 1.078l.289.297.285-.297a3.494 3.494 0 0 1 1.398-.89 2.42 2.42 0 0 0-.082.613.4.4 0 0 0 .801 0c0-.887.719-1.605 1.602-1.605.882 0 1.601.718 1.601 1.605a.4.4 0 0 0 .801 0 2.4 2.4 0 0 0-2.023-2.371zm0 0"/>
</svg>
